svgs/flclash.svg

<svg width="192" height="192" viewBox="0 0 192 192" fill="none" xmlns="http://www.w3.org/2000/svg">
<path d="M68.3804 101.086L142.538 57.7416C151.586 52.4529 154.686 40.7396 149.462 31.5793C144.238 22.4189 132.668 19.2804 123.62 24.5691L49.4622 67.9134C40.4138 73.2021 37.3136 84.9154 42.5377 94.0757C47.7618 103.236 59.332 106.375 68.3804 101.086ZM68.3804 101.086L105.459 79.4137C114.507 74.125 126.078 77.2636 131.302 86.4239C136.526 95.5843 133.426 107.298 124.377 112.586L87.2985 134.258M68.3804 101.086C59.332 106.375 56.2318 118.088 61.4559 127.248C66.68 136.409 78.2501 139.547 87.2985 134.258M87.2985 134.258C96.347 128.97 107.917 132.108 113.141 141.269C118.365 150.429 115.265 162.142 106.217 167.431C97.1683 172.72 85.5981 169.581 80.374 160.421C75.1499 151.26 78.2501 139.547 87.2985 134.258Z" stroke="black" stroke-width="12"/>
</svg>

<svg xmlns="http://www.w3.org/2000/svg" width="192" height="192" fill="none" viewBox="0 0 192 192"><path stroke="#000" stroke-width="12" d="m68.38 101.086 74.158-43.344c9.048-5.29 12.148-17.002 6.924-26.163-5.224-9.16-16.794-12.299-25.842-7.01L49.462 67.913c-9.048 5.29-12.148 17.002-6.924 26.163 5.224 9.16 16.794 12.299 25.842 7.01Zm0 0 37.079-21.672c9.048-5.289 20.619-2.15 25.843 7.01s2.124 20.874-6.925 26.162l-37.078 21.672M68.38 101.086c-9.048 5.289-12.148 17.002-6.924 26.162s16.794 12.299 25.843 7.01m0 0c9.048-5.288 20.618-2.15 25.842 7.011s2.124 20.873-6.924 26.162-20.619 2.15-25.843-7.01-2.124-20.874 6.925-26.163Z"/></svg>
